symbolic/32x32/apps/smartgit.svg

<svg xmlns="http://www.w3.org/2000/svg" width="32" height="32" version="1">
 <rect style="opacity:0.2" width="28" height="28" x="2" y="3" rx="1.4" ry="1.4"/>
 <rect style="fill:#e4e4e4" width="28" height="28" x="2" y="2" rx="1.4" ry="1.4"/>
 <path style="opacity:0.1" d="M 15.916016 10.058594 L 6 17 L 13.558594 22.291016 L 14.154297 19.207031 L 11 17 L 15.136719 14.103516 L 15.916016 10.058594 z M 18.626953 11.839844 L 18.033203 14.923828 L 21 17 L 17.107422 19.724609 L 16.328125 23.769531 L 26 17 L 18.626953 11.839844 z"/>
 <path style="fill:#483c8f" d="M 15.916016,9.0585938 6,16 13.558594,21.291016 14.154297,18.207031 11,16 15.136719,13.103516 Z"/>
 <path style="fill:#4b8adf" d="M 18.626953,10.839844 18.033203,13.923828 21,16 17.107422,18.724609 16.328125,22.769531 26,16 Z"/>
 <path style="fill:#ffffff;opacity:0.2" d="M 3.4003906 2 C 2.6247906 2 2 2.6247906 2 3.4003906 L 2 4.4003906 C 2 3.6247906 2.6247906 3 3.4003906 3 L 28.599609 3 C 29.375209 3 30 3.6247906 30 4.4003906 L 30 3.4003906 C 30 2.6247906 29.375209 2 28.599609 2 L 3.4003906 2 z"/>
</svg>

<svg xmlns="http://www.w3.org/2000/svg" width="32" height="32" version="1"><rect style="opacity:.2" width="28" height="28" x="2" y="3" rx="1.4" ry="1.4"/><rect style="fill:#e4e4e4" width="28" height="28" x="2" y="2" rx="1.4" ry="1.4"/><path style="opacity:.1" d="M15.916 10.059 6 17l7.559 5.291.595-3.084L11 17l4.137-2.896.779-4.045zm2.711 1.78-.594 3.085L21 17l-3.893 2.725-.779 4.045L26 17l-7.373-5.16z"/><path style="fill:#483c8f" d="M15.916 9.059 6 16l7.559 5.291.595-3.084L11 16l4.137-2.896z"/><path style="fill:#4b8adf" d="m18.627 10.84-.594 3.084L21 16l-3.893 2.725-.779 4.045L26 16z"/><path style="fill:#fff;opacity:.2" d="M3.4 2C2.625 2 2 2.625 2 3.4v1C2 3.625 2.625 3 3.4 3h25.2c.775 0 1.4.625 1.4 1.4v-1c0-.775-.625-1.4-1.4-1.4H3.4z"/></svg>
